assets/1. P-Z/White flower/Color/White.Flower-color.svg

<svg width="100%" height="100%" viewBox="0 0 32 32" fill="none" xmlns="http://www.w3.org/2000/svg">
<path d="M12.3408 26.3499L11.7108 25.0699C11.1308 23.8899 9.99077 23.0599 8.69077 22.8699L7.28077 22.6599C3.99077 22.1799 2.67077 18.1299 5.05077 15.8099L6.07077 14.8099C7.02077 13.8899 7.45077 12.5599 7.22077 11.2599L6.98077 9.8499C6.42077 6.5699 9.86077 4.0699 12.8108 5.6199L14.0808 6.2899C15.2508 6.8999 16.6508 6.8999 17.8208 6.2899L19.0908 5.6199C22.0408 4.0699 25.4808 6.5699 24.9208 9.8499L24.6808 11.2599C24.4608 12.5599 24.8908 13.8899 25.8308 14.8099L26.8508 15.8099C29.2308 18.1299 27.9208 22.1799 24.6208 22.6599L23.2108 22.8699C21.9008 23.0599 20.7708 23.8799 20.1908 25.0699L19.5608 26.3499C18.0708 29.3299 13.8208 29.3299 12.3408 26.3499Z" fill="#D5C1DA" stroke="url(#paint0_radial_28327_7196)" stroke-width="0.9883" stroke-miterlimit="10"/>
<g filter="url(#filter0_i_28327_7196)">
<path d="M20.8708 28.6C19.0908 28.6 17.4108 27.74 16.3708 26.31C16.2208 26.11 16.1008 25.9 15.9808 25.67C15.8708 25.9 15.7408 26.11 15.5908 26.31C14.5508 27.74 12.8708 28.6 11.0908 28.6C10.3408 28.6 9.61076 28.45 8.92076 28.16C8.53076 28 8.30076 27.59 8.34076 27.16L8.39076 26.7L7.97076 26.89C7.85076 26.95 7.71076 26.98 7.57076 26.98C7.29076 26.98 7.02076 26.86 6.84076 26.65C5.14076 24.68 5.02076 21.83 6.54076 19.73C6.69076 19.53 6.85076 19.34 7.03076 19.16C6.78076 19.12 6.53076 19.07 6.30076 18.99C3.83076 18.19 2.26076 15.81 2.48076 13.22C2.51076 12.8 2.83076 12.45 3.25076 12.36L3.70076 12.26L3.40076 11.93C3.11076 11.62 3.06076 11.14 3.28076 10.79C4.29076 9.12996 6.12076 8.08996 8.05076 8.08996C8.63076 8.08996 9.21076 8.17996 9.77076 8.35996C10.0008 8.43996 10.2308 8.53996 10.4508 8.64996C10.4108 8.39996 10.3908 8.14996 10.3908 7.89996C10.3908 5.30996 12.1608 3.07996 14.7008 2.47996C14.7708 2.45996 14.8408 2.45996 14.9108 2.45996C15.2508 2.45996 15.5808 2.64996 15.7508 2.94996L15.9808 3.34996L16.2108 2.94996C16.3908 2.64996 16.7108 2.45996 17.0508 2.45996C17.1208 2.45996 17.1908 2.46996 17.2608 2.47996C19.8008 3.07996 21.5708 5.29996 21.5708 7.89996C21.5708 8.14996 21.5508 8.39996 21.5108 8.64996C21.7308 8.52996 21.9608 8.43996 22.2008 8.35996C22.7608 8.17996 23.3408 8.08996 23.9208 8.08996C25.8508 8.08996 27.6808 9.11996 28.6908 10.79C28.9108 11.15 28.8608 11.62 28.5708 11.94L28.2608 12.28L28.7108 12.38C29.1308 12.47 29.4508 12.82 29.4808 13.24C29.7008 15.84 28.1308 18.21 25.6608 19.01C25.4208 19.09 25.1808 19.14 24.9308 19.18C25.1108 19.36 25.2808 19.55 25.4208 19.75C26.9408 21.85 26.8208 24.69 25.1208 26.67C24.9408 26.88 24.6808 27 24.3908 27C24.2508 27 24.1108 26.97 23.9908 26.91L23.5708 26.72L23.6208 27.18C23.6608 27.61 23.4308 28.02 23.0408 28.18C22.3508 28.45 21.6208 28.6 20.8708 28.6Z" fill="url(#paint1_radial_28327_7196)"/>
</g>
<g filter="url(#filter1_ii_28327_7196)">
<path d="M17.0508 2.93C17.0908 2.93 17.1208 2.93 17.1608 2.94C19.4208 3.47 21.1108 5.48 21.1108 7.9C21.1108 8.6 20.9208 9.26 20.6008 9.9C21.1108 9.4 21.6808 9.02 22.3408 8.8C22.8608 8.63 23.3908 8.55 23.9108 8.55C25.6808 8.55 27.3508 9.49 28.2808 11.02C28.3908 11.21 28.3608 11.45 28.2108 11.61C28.2108 11.61 27.6308 12.26 27.5108 12.39C27.4508 12.45 27.4908 12.58 27.5808 12.6C27.7708 12.64 28.6008 12.82 28.6008 12.82C28.8108 12.87 28.9808 13.04 29.0008 13.26C29.1908 15.57 27.8008 17.8 25.5008 18.55C25.0808 18.69 24.6608 18.74 24.2308 18.74C23.9708 18.74 23.7008 18.72 23.4308 18.68C24.0608 19.01 24.6208 19.43 25.0308 20C26.4508 21.96 26.2708 24.58 24.7508 26.34C24.6608 26.45 24.5208 26.51 24.3808 26.51C24.3108 26.51 24.2308 26.5 24.1708 26.46C24.1708 26.46 23.3808 26.11 23.2108 26.03C23.2008 26.02 23.1808 26.02 23.1708 26.02C23.1008 26.02 23.0308 26.09 23.0408 26.16C23.0608 26.35 23.1508 27.2 23.1508 27.2C23.1708 27.42 23.0608 27.64 22.8508 27.72C22.2108 27.99 21.5308 28.12 20.8608 28.12C19.2908 28.12 17.7408 27.4 16.7408 26.02C16.3308 25.45 16.0908 24.8 15.9808 24.11C15.8608 24.81 15.6308 25.46 15.2208 26.02C14.2208 27.39 12.6708 28.12 11.1008 28.12C10.4308 28.12 9.75076 27.99 9.11076 27.72C8.91076 27.64 8.79076 27.42 8.81076 27.2C8.81076 27.2 8.90076 26.34 8.92076 26.16C8.93076 26.09 8.86076 26.03 8.79076 26.03C8.77076 26.03 8.76076 26.03 8.74076 26.04C8.56076 26.12 7.79076 26.46 7.79076 26.46C7.72076 26.49 7.65076 26.51 7.58076 26.51C7.44076 26.51 7.30076 26.45 7.21076 26.34C5.69076 24.58 5.51076 21.96 6.93076 20C7.34076 19.43 7.90077 19.01 8.53077 18.68C8.26077 18.72 7.99076 18.74 7.73076 18.74C7.30076 18.74 6.87076 18.68 6.46076 18.55C4.16076 17.8 2.77076 15.57 2.96076 13.26C2.98076 13.04 3.15076 12.86 3.36076 12.82C3.36076 12.82 4.21076 12.64 4.39076 12.6C4.47076 12.58 4.51076 12.46 4.45076 12.39C4.32076 12.25 3.75076 11.62 3.75076 11.62C3.60076 11.46 3.56076 11.22 3.68076 11.03C4.61076 9.49 6.28077 8.56 8.05077 8.56C8.57077 8.56 9.10076 8.64 9.62076 8.81C10.2808 9.03 10.8608 9.41 11.3608 9.91C11.0508 9.27 10.8508 8.61 10.8508 7.91C10.8508 5.49 12.5408 3.48 14.8008 2.95C14.8408 2.94 14.8708 2.94 14.9108 2.94C15.0908 2.94 15.2608 3.04 15.3508 3.2C15.3508 3.2 15.7908 3.95 15.8808 4.11C15.9008 4.15 15.9408 4.16 15.9808 4.16C16.0208 4.16 16.0708 4.14 16.0908 4.1C16.1908 3.93 16.6108 3.2 16.6108 3.2C16.7108 3.03 16.8808 2.93 17.0508 2.93ZM17.0508 2C16.6408 2 16.2508 2.18 15.9808 2.48C15.7108 2.18 15.3208 2 14.9108 2C14.8008 2 14.7008 2.01 14.5908 2.04C11.8408 2.68 9.92076 5.1 9.92076 7.91C9.92076 7.92 9.92076 7.92 9.92076 7.93C9.91076 7.93 9.91076 7.93 9.90076 7.92C9.30076 7.72 8.67076 7.62 8.04076 7.62C5.95076 7.62 3.97076 8.74 2.87076 10.54C2.60076 10.99 2.60076 11.55 2.87076 12C2.40076 12.21 2.06076 12.66 2.02076 13.19C1.79076 16 3.49076 18.57 6.16076 19.44C6.17076 19.44 6.17076 19.44 6.18076 19.45L6.17076 19.46C4.52076 21.73 4.65076 24.82 6.49076 26.95C6.76076 27.26 7.15077 27.44 7.57077 27.44C7.67077 27.44 7.78076 27.43 7.88076 27.41C7.93076 27.92 8.26076 28.39 8.74076 28.59C9.49076 28.9 10.2808 29.06 11.0908 29.06C13.0208 29.06 14.8408 28.13 15.9708 26.58L15.9808 26.57L15.9908 26.58C17.1208 28.13 18.9408 29.06 20.8708 29.06C21.6808 29.06 22.4708 28.9 23.2208 28.59C23.7008 28.39 24.0308 27.93 24.0808 27.41C24.1808 27.43 24.2808 27.44 24.3908 27.44C24.8108 27.44 25.2008 27.26 25.4708 26.95C27.3108 24.81 27.4508 21.73 25.7908 19.46L25.7808 19.45C25.7908 19.45 25.7908 19.45 25.8008 19.44C28.4708 18.57 30.1808 16 29.9408 13.19C29.9008 12.67 29.5608 12.21 29.0908 12.01C29.3508 11.56 29.3608 11 29.0908 10.55C28.0008 8.75 26.0208 7.63 23.9208 7.63C23.2908 7.63 22.6608 7.73 22.0608 7.93C22.0508 7.93 22.0508 7.93 22.0408 7.94C22.0408 7.93 22.0408 7.93 22.0408 7.92C22.0408 5.11 20.1208 2.69 17.3708 2.05C17.2708 2.01 17.1608 2 17.0508 2Z" fill="#FF6CC7"/>
</g>
<path d="M16.4307 14.23L15.1407 15.38L16.5207 16.48" stroke="#FF6CC7" stroke-width="0.35" stroke-miterlimit="10" stroke-linecap="round" stroke-linejoin="round"/>
<path d="M15.9707 10.8101V12.8901C15.9707 12.8901 16.0207 13.4601 15.3907 13.4601C14.7607 13.4601 14.7707 12.7201 15.1807 12.5701C15.5907 12.4201 16.4307 12.5501 16.9507 13.2201" stroke="#FF6CC7" stroke-width="0.35" stroke-miterlimit="10" stroke-linecap="round" stroke-linejoin="round"/>
<path d="M17.0107 11.5801H16.0007" stroke="#FF6CC7" stroke-width="0.35" stroke-miterlimit="10" stroke-linecap="round" stroke-linejoin="round"/>
<path d="M19.9307 11.79C19.9307 11.79 20.0007 12.75 21.2107 13.34" stroke="#FF6CC7" stroke-width="0.35" stroke-miterlimit="10" stroke-linecap="round" stroke-linejoin="round"/>
<path d="M18.6007 13.4C18.6007 13.4 19.7507 12.95 19.9207 11.78" stroke="#FF6CC7" stroke-width="0.35" stroke-miterlimit="10" stroke-linecap="round" stroke-linejoin="round"/>
<path d="M21.0308 11.6001H18.7708" stroke="#FF6CC7" stroke-width="0.35" stroke-miterlimit="10" stroke-linecap="round" stroke-linejoin="round"/>
<path d="M19.9207 10.8899V11.9299" stroke="#FF6CC7" stroke-width="0.35" stroke-miterlimit="10" stroke-linecap="round" stroke-linejoin="round"/>
<path d="M11.9207 10.8201V12.7301C11.9207 12.7301 11.9807 13.3801 11.3407 13.3801C10.7007 13.3801 10.6507 12.6301 11.3107 12.4601C11.9707 12.2901 12.6707 12.9301 12.9107 13.2201" stroke="#FF6CC7" stroke-width="0.35" stroke-miterlimit="10" stroke-linecap="round" stroke-linejoin="round"/>
<path d="M12.8308 11.23H10.9008" stroke="#FF6CC7" stroke-width="0.35" stroke-miterlimit="10" stroke-linecap="round" stroke-linejoin="round"/>
<path d="M12.8308 11.8401H10.9008" stroke="#FF6CC7" stroke-width="0.35" stroke-miterlimit="10" stroke-linecap="round" stroke-linejoin="round"/>
<path d="M11.2207 14.1599V15.8199C11.2207 15.8199 11.2107 16.4999 11.8307 16.4999C12.4507 16.4999 12.7807 15.9799 12.9607 15.4099" stroke="#FF6CC7" stroke-width="0.35" stroke-miterlimit="10" stroke-linecap="round" stroke-linejoin="round"/>
<path d="M11.4208 17.1699C11.4208 17.1699 11.3908 18.2699 10.7708 19.7599" stroke="#FF6CC7" stroke-width="0.35" stroke-miterlimit="10" stroke-linecap="round" stroke-linejoin="round"/>
<path d="M12.0107 17.79H10.6907" stroke="#FF6CC7" stroke-width="0.35" stroke-miterlimit="10" stroke-linecap="round" stroke-linejoin="round"/>
<path d="M11.9307 18.3501H12.9207" stroke="#FF6CC7" stroke-width="0.35" stroke-miterlimit="10" stroke-linecap="round" stroke-linejoin="round"/>
<path d="M11.8707 19.01C11.8707 19.01 11.6907 19.36 12.0507 19.52C12.4007 19.68 13.1407 19.49 13.1407 19.49" stroke="#FF6CC7" stroke-width="0.35" stroke-miterlimit="10" stroke-linecap="round" stroke-linejoin="round"/>
<path d="M12.7708 21.3699C13.0414 21.3699 13.2608 21.1505 13.2608 20.8799C13.2608 20.6093 13.0414 20.3899 12.7708 20.3899C12.5001 20.3899 12.2808 20.6093 12.2808 20.8799C12.2808 21.1505 12.5001 21.3699 12.7708 21.3699Z" stroke="#FF6CC7" stroke-width="0.35" stroke-miterlimit="10" stroke-linecap="round" stroke-linejoin="round"/>
<path d="M14.6807 17.7H16.7407C16.7407 17.7 15.5807 17.84 15.5807 18.76C15.5807 19.68 16.5907 19.56 16.5907 19.56" stroke="#FF6CC7" stroke-width="0.35" stroke-miterlimit="10" stroke-linecap="round" stroke-linejoin="round"/>
<path d="M16.6207 18.4199L16.8707 18.7299" stroke="#FF6CC7" stroke-width="0.35" stroke-miterlimit="10" stroke-linecap="round" stroke-linejoin="round"/>
<path d="M17.0807 18.1299L17.3407 18.4599" stroke="#FF6CC7" stroke-width="0.35" stroke-miterlimit="10" stroke-linecap="round" stroke-linejoin="round"/>
<path d="M15.9508 20.52L16.6708 22.05H15.6308C15.6308 22.05 15.0208 22.03 15.0208 22.58C15.0208 23.12 15.7808 23.27 16.8708 22.76" stroke="#FF6CC7" stroke-width="0.35" stroke-miterlimit="10" stroke-linecap="round" stroke-linejoin="round"/>
<path d="M15.1907 20.93C15.1907 20.93 16.3007 20.99 16.9807 20.74" stroke="#FF6CC7" stroke-width="0.35" stroke-miterlimit="10" stroke-linecap="round" stroke-linejoin="round"/>
<path d="M15.1508 21.5301C15.1508 21.5301 16.4708 21.5401 17.0508 21.3601" stroke="#FF6CC7" stroke-width="0.35" stroke-miterlimit="10" stroke-linecap="round" stroke-linejoin="round"/>
<path d="M18.7708 14.3H21.1408" stroke="#FF6CC7" stroke-width="0.35" stroke-miterlimit="10" stroke-linecap="round" stroke-linejoin="round"/>
<path d="M19.2507 15.2401C19.2507 15.2401 19.6507 15.0801 19.7707 14.3201" stroke="#FF6CC7" stroke-width="0.35" stroke-miterlimit="10" stroke-linecap="round" stroke-linejoin="round"/>
<path d="M20.0208 15.2099H20.3908V14.4299" stroke="#FF6CC7" stroke-width="0.35" stroke-miterlimit="10" stroke-linecap="round" stroke-linejoin="round"/>
<path d="M19.9008 14.26V13.97" stroke="#FF6CC7" stroke-width="0.35" stroke-miterlimit="10" stroke-linecap="round" stroke-linejoin="round"/>
<path d="M20.9107 14.8301C20.9107 14.8301 21.1107 15.0301 21.2707 15.2401" stroke="#FF6CC7" stroke-width="0.35" stroke-miterlimit="10" stroke-linecap="round" stroke-linejoin="round"/>
<path d="M18.9507 14.79C18.9507 14.79 18.8107 15.02 18.6207 15.2" stroke="#FF6CC7" stroke-width="0.35" stroke-miterlimit="10" stroke-linecap="round" stroke-linejoin="round"/>
<path d="M19.5008 15.75H20.6208C20.6208 15.75 20.0708 16.66 18.6508 16.66" stroke="#FF6CC7" stroke-width="0.35" stroke-miterlimit="10" stroke-linecap="round" stroke-linejoin="round"/>
<path d="M19.7208 15.4099C19.7208 15.4099 19.2908 15.9099 18.8408 16.0899" stroke="#FF6CC7" stroke-width="0.35" stroke-miterlimit="10" stroke-linecap="round" stroke-linejoin="round"/>
<path d="M19.4307 15.8601C19.4307 15.8601 19.7307 16.6601 21.0607 16.7201" stroke="#FF6CC7" stroke-width="0.35" stroke-miterlimit="10" stroke-linecap="round" stroke-linejoin="round"/>
<defs>
<filter id="filter0_i_28327_7196" x="0.960266" y="2.45996" width="28.541" height="27.6399" filterUnits="userSpaceOnUse" color-interpolation-filters="sRGB">
<feFlood flood-opacity="0" result="BackgroundImageFix"/>
<feBlend mode="normal" in="SourceGraphic" in2="BackgroundImageFix" result="shape"/>
<feColorMatrix in="SourceAlpha" type="matrix" values="0 0 0 0 0 0 0 0 0 0 0 0 0 0 0 0 0 0 127 0" result="hardAlpha"/>
<feOffset dx="-1.5" dy="1.5"/>
<feGaussianBlur stdDeviation="1.5"/>
<feComposite in2="hardAlpha" operator="arithmetic" k2="-1" k3="1"/>
<feColorMatrix type="matrix" values="0 0 0 0 0.819608 0 0 0 0 0.733333 0 0 0 0 0.882353 0 0 0 1 0"/>
<feBlend mode="normal" in2="shape" result="effect1_innerShadow_28327_7196"/>
</filter>
<filter id="filter1_ii_28327_7196" x="1.8" y="1.75" width="28.3631" height="27.5601" filterUnits="userSpaceOnUse" color-interpolation-filters="sRGB">
<feFlood flood-opacity="0" result="BackgroundImageFix"/>
<feBlend mode="normal" in="SourceGraphic" in2="BackgroundImageFix" result="shape"/>
<feColorMatrix in="SourceAlpha" type="matrix" values="0 0 0 0 0 0 0 0 0 0 0 0 0 0 0 0 0 0 127 0" result="hardAlpha"/>
<feOffset dx="0.2" dy="-0.4"/>
<feGaussianBlur stdDeviation="0.125"/>
<feComposite in2="hardAlpha" operator="arithmetic" k2="-1" k3="1"/>
<feColorMatrix type="matrix" values="0 0 0 0 0.870588 0 0 0 0 0.313726 0 0 0 0 0.741176 0 0 0 0.75 0"/>
<feBlend mode="normal" in2="shape" result="effect1_innerShadow_28327_7196"/>
<feColorMatrix in="SourceAlpha" type="matrix" values="0 0 0 0 0 0 0 0 0 0 0 0 0 0 0 0 0 0 127 0" result="hardAlpha"/>
<feOffset dx="-0.2" dy="0.4"/>
<feGaussianBlur stdDeviation="0.125"/>
<feComposite in2="hardAlpha" operator="arithmetic" k2="-1" k3="1"/>
<feColorMatrix type="matrix" values="0 0 0 0 0.996078 0 0 0 0 0.541176 0 0 0 0 0.831373 0 0 0 1 0"/>
<feBlend mode="normal" in2="effect1_innerShadow_28327_7196" result="effect2_innerShadow_28327_7196"/>
</filter>
<radialGradient id="paint0_radial_28327_7196" cx="0" cy="0" r="1" gradientUnits="userSpaceOnUse" gradientTransform="translate(29.375 12.6249) rotate(154.008) scale(27.9522 17.552)">
<stop stop-color="#FF91DE"/>
<stop offset="1" stop-color="#D756B1"/>
</radialGradient>
<radialGradient id="paint1_radial_28327_7196" cx="0" cy="0" r="1" gradientUnits="userSpaceOnUse" gradientTransform="translate(11.25 25) rotate(-46.4476) scale(24.4914 25.3355)">
<stop stop-color="#F7EBFF"/>
<stop offset="1" stop-color="#E3D6ED"/>
</radialGradient>
</defs>
</svg>

<svg width="100%" height="100%" viewBox="0 0 32 32" xmlns="http://www.w3.org/2000/svg"><path fill="#D5C1DA" stroke="url(#a)" stroke-miterlimit="10" stroke-width=".988" d="m12.34 26.35-.63-1.28a4.03 4.03 0 0 0-3.02-2.2l-1.41-.21c-3.29-.48-4.61-4.53-2.23-6.85l1.02-1c.95-.92 1.38-2.25 1.15-3.55l-.24-1.41c-.56-3.28 2.88-5.78 5.83-4.23l1.27.67c1.17.61 2.57.61 3.74 0l1.27-.67c2.95-1.55 6.39.95 5.83 4.23l-.24 1.41c-.22 1.3.21 2.63 1.15 3.55l1.02 1c2.38 2.32 1.07 6.37-2.23 6.85l-1.41.21a3.99 3.99 0 0 0-3.02 2.2l-.63 1.28c-1.49 2.98-5.74 2.98-7.22 0Z"/><g filter="url(#b)"><path fill="url(#c)" d="M20.87 28.6a5.58 5.58 0 0 1-4.5-2.29c-.15-.2-.27-.41-.39-.64-.11.23-.24.44-.39.64a5.58 5.58 0 0 1-4.5 2.29c-.75 0-1.48-.15-2.17-.44-.39-.16-.62-.57-.58-1l.05-.46-.42.19a.964.964 0 0 1-1.13-.24 5.57 5.57 0 0 1-.3-6.92c.15-.2.31-.39.49-.57-.25-.04-.5-.09-.73-.17a5.546 5.546 0 0 1-3.82-5.77c.03-.42.35-.77.77-.86l.45-.1-.3-.33a.95.95 0 0 1-.12-1.14c1.01-1.66 2.84-2.7 4.77-2.7.58 0 1.16.09 1.72.27.23.08.46.18.68.29q-.06-.375-.06-.75c0-2.59 1.77-4.82 4.31-5.42.07-.02.14-.02.21-.02.34 0 .67.19.84.49l.23.4.23-.4c.18-.3.5-.49.84-.49.07 0 .14.01.21.02 2.54.6 4.31 2.82 4.31 5.42q0 .375-.06.75c.22-.12.45-.21.69-.29.56-.18 1.14-.27 1.72-.27a5.61 5.61 0 0 1 4.77 2.7c.22.36.17.83-.12 1.15l-.31.34.45.1c.42.09.74.44.77.86.22 2.6-1.35 4.97-3.82 5.77-.24.08-.48.13-.73.17.18.18.35.37.49.57 1.52 2.1 1.4 4.94-.3 6.92-.18.21-.44.33-.73.33-.14 0-.28-.03-.4-.09l-.42-.19.05.46c.04.43-.19.84-.58 1-.69.27-1.42.42-2.17.42"/></g><g filter="url(#d)"><path fill="#FF6CC7" d="M17.05 2.93c.04 0 .07 0 .11.01 2.26.53 3.95 2.54 3.95 4.96 0 .7-.19 1.36-.51 2 .51-.5 1.08-.88 1.74-1.1.52-.17 1.05-.25 1.57-.25 1.77 0 3.44.94 4.37 2.47.11.19.08.43-.07.59 0 0-.58.65-.7.78-.06.06-.02.19.07.21l1.02.22c.21.05.38.22.4.44.19 2.31-1.2 4.54-3.5 5.29-.42.14-.84.19-1.27.19-.26 0-.53-.02-.8-.06.63.33 1.19.75 1.6 1.32 1.42 1.96 1.24 4.58-.28 6.34a.48.48 0 0 1-.37.17c-.07 0-.15-.01-.21-.05 0 0-.79-.35-.96-.43-.01-.01-.03-.01-.04-.01-.07 0-.14.07-.13.14l.11 1.04c.02.22-.09.44-.3.52-.64.27-1.32.4-1.99.4-1.57 0-3.12-.72-4.12-2.1-.41-.57-.65-1.22-.76-1.91-.12.7-.35 1.35-.76 1.91-1 1.37-2.55 2.1-4.12 2.1-.67 0-1.35-.13-1.99-.4a.51.51 0 0 1-.3-.52l.11-1.04c.01-.07-.06-.13-.13-.13-.02 0-.03 0-.05.01l-.95.42a.48.48 0 0 1-.58-.12c-1.52-1.76-1.7-4.38-.28-6.34.41-.57.97-.99 1.6-1.32-.27.04-.54.06-.8.06-.43 0-.86-.06-1.27-.19-2.3-.75-3.69-2.98-3.5-5.29a.5.5 0 0 1 .4-.44s.85-.18 1.03-.22c.08-.02.12-.14.06-.21-.13-.14-.7-.77-.7-.77a.484.484 0 0 1-.07-.59c.93-1.54 2.6-2.47 4.37-2.47.52 0 1.05.08 1.57.25.66.22 1.24.6 1.74 1.1-.31-.64-.51-1.3-.51-2 0-2.42 1.69-4.43 3.95-4.96.04-.01.07-.01.11-.01.18 0 .35.1.44.26 0 0 .44.75.53.91.02.04.06.05.1.05s.09-.02.11-.06c.1-.17.52-.9.52-.9.1-.17.27-.27.44-.27m0-.93c-.41 0-.8.18-1.07.48-.27-.3-.66-.48-1.07-.48-.11 0-.21.01-.32.04a6.01 6.01 0 0 0-4.67 5.87v.02c-.01 0-.01 0-.02-.01-.6-.2-1.23-.3-1.86-.3-2.09 0-4.07 1.12-5.17 2.92-.27.45-.27 1.01 0 1.46-.47.21-.81.66-.85 1.19a6.024 6.024 0 0 0 4.14 6.25c.01 0 .01 0 .02.01l-.01.01a6.02 6.02 0 0 0 .32 7.49c.27.31.66.49 1.08.49.1 0 .21-.01.31-.03.05.51.38.98.86 1.18a6.053 6.053 0 0 0 7.23-2.01l.01-.01.01.01a6.05 6.05 0 0 0 7.23 2.01c.48-.2.81-.66.86-1.18.1.02.2.03.31.03.42 0 .81-.18 1.08-.49 1.84-2.14 1.98-5.22.32-7.49l-.01-.01c.01 0 .01 0 .02-.01a6.01 6.01 0 0 0 4.14-6.25c-.04-.52-.38-.98-.85-1.18.26-.45.27-1.01 0-1.46a6.08 6.08 0 0 0-5.17-2.92c-.63 0-1.26.1-1.86.3-.01 0-.01 0-.02.01v-.02a6.01 6.01 0 0 0-4.67-5.87.9.9 0 0 0-.32-.05"/></g><path stroke="#FF6CC7" stroke-linecap="round" stroke-linejoin="round" stroke-miterlimit="10" stroke-width=".35" d="m16.43 14.23-1.29 1.15 1.38 1.1M15.97 10.81v2.08s.05.57-.58.57-.62-.74-.21-.89 1.25-.02 1.77.65M17.01 11.58H16M19.93 11.79s.07.96 1.28 1.55M18.6 13.4s1.15-.45 1.32-1.62M21.03 11.6h-2.26M19.92 10.89v1.04M11.92 10.82v1.91s.06.65-.58.65-.69-.75-.03-.92 1.36.47 1.6.76M12.83 11.23H10.9M12.83 11.84H10.9M11.22 14.16v1.66s-.01.68.61.68.95-.52 1.13-1.09M11.42 17.17s-.03 1.1-.65 2.59M12.01 17.79h-1.32M11.93 18.35h.99M11.87 19.01s-.18.35.18.51c.35.16 1.09-.03 1.09-.03M12.77 21.37a.49.49 0 1 0 0-.98.49.49 0 0 0 0 .98M14.68 17.7h2.06s-1.16.14-1.16 1.06 1.01.8 1.01.8M16.62 18.42l.25.31M17.08 18.13l.26.33M15.95 20.52l.72 1.53h-1.04s-.61-.02-.61.53c0 .54.76.69 1.85.18"/><path stroke="#FF6CC7" stroke-linecap="round" stroke-linejoin="round" stroke-miterlimit="10" stroke-width=".35" d="M15.19 20.93s1.11.06 1.79-.19M15.15 21.53s1.32.01 1.9-.17M18.77 14.3h2.37M19.25 15.24s.4-.16.52-.92M20.02 15.21h.37v-.78M19.9 14.26v-.29M20.91 14.83s.2.2.36.41M18.95 14.79s-.14.23-.33.41M19.5 15.75h1.12s-.55.91-1.97.91M19.72 15.41s-.43.5-.88.68"/><path stroke="#FF6CC7" stroke-linecap="round" stroke-linejoin="round" stroke-miterlimit="10" stroke-width=".35" d="M19.43 15.86s.3.8 1.63.86"/><defs><radialGradient id="a" cx="0" cy="0" r="1" gradientTransform="matrix(-25.12498 12.24993 -7.69209 -15.7767 29.375 12.625)" gradientUnits="userSpaceOnUse"><stop stop-color="#FF91DE"/><stop offset="1" stop-color="#D756B1"/></radialGradient><radialGradient id="c" cx="0" cy="0" r="1" gradientTransform="matrix(16.875 -17.75 18.36177 17.4566 11.25 25)" gradientUnits="userSpaceOnUse"><stop stop-color="#F7EBFF"/><stop offset="1" stop-color="#E3D6ED"/></radialGradient><filter id="b" width="28.541" height="27.64" x=".96" y="2.46" color-interpolation-filters="sRGB" filterUnits="userSpaceOnUse"><feFlood flood-opacity="0" result="BackgroundImageFix"/><feBlend in="SourceGraphic" in2="BackgroundImageFix" result="shape"/><feColorMatrix in="SourceAlpha" result="hardAlpha" values="0 0 0 0 0 0 0 0 0 0 0 0 0 0 0 0 0 0 127 0"/><feOffset dx="-1.5" dy="1.5"/><feGaussianBlur stdDeviation="1.5"/><feComposite in2="hardAlpha" k2="-1" k3="1" operator="arithmetic"/><feColorMatrix values="0 0 0 0 0.819608 0 0 0 0 0.733333 0 0 0 0 0.882353 0 0 0 1 0"/><feBlend in2="shape" result="effect1_innerShadow_28327_7196"/></filter><filter id="d" width="28.363" height="27.56" x="1.8" y="1.75" color-interpolation-filters="sRGB" filterUnits="userSpaceOnUse"><feFlood flood-opacity="0" result="BackgroundImageFix"/><feBlend in="SourceGraphic" in2="BackgroundImageFix" result="shape"/><feColorMatrix in="SourceAlpha" result="hardAlpha" values="0 0 0 0 0 0 0 0 0 0 0 0 0 0 0 0 0 0 127 0"/><feOffset dx=".2" dy="-.4"/><feGaussianBlur stdDeviation=".125"/><feComposite in2="hardAlpha" k2="-1" k3="1" operator="arithmetic"/><feColorMatrix values="0 0 0 0 0.870588 0 0 0 0 0.313726 0 0 0 0 0.741176 0 0 0 0.75 0"/><feBlend in2="shape" result="effect1_innerShadow_28327_7196"/><feColorMatrix in="SourceAlpha" result="hardAlpha" values="0 0 0 0 0 0 0 0 0 0 0 0 0 0 0 0 0 0 127 0"/><feOffset dx="-.2" dy=".4"/><feGaussianBlur stdDeviation=".125"/><feComposite in2="hardAlpha" k2="-1" k3="1" operator="arithmetic"/><feColorMatrix values="0 0 0 0 0.996078 0 0 0 0 0.541176 0 0 0 0 0.831373 0 0 0 1 0"/><feBlend in2="effect1_innerShadow_28327_7196" result="effect2_innerShadow_28327_7196"/></filter></defs></svg>
